blockchains/ethereum/assets/0x4a74Df6113E3d38d8e184273341Cb6BBb6885152/logo.svg

<svg fill="none" height="250" viewBox="0 0 250 250" width="250" xmlns="http://www.w3.org/2000/svg"><path d="m125.537 0c38.189 52.22 76.025 104.73 114.213 156.971-38.083 30.948-76.113 61.957-114.089 93.029-38.6023-30.969-77.036-62.102-115.661-93.029 38.6433-52.221 77.1558-104.5443 115.537-156.971zm-67.812 150.875c16.8388 13.416 33.4713 27.061 50.352 40.416.042-36.302.166-72.625-.062-108.9472-16.57 22.9862-33.6162 45.6222-50.29 68.5312zm85.314-67.9525c-.084 36.0745-.084 72.1635 0 108.2655 16.301-13.626 32.934-26.834 49.297-40.376-16.467-22.618-32.976-45.187-49.297-67.892z" fill="#3d82f3"/></svg>

<svg width="250" height="250" viewBox="0 0 250 250" fill="none" xmlns="http://www.w3.org/2000/svg">
<path d="M125.537 0C163.726 52.22 201.562 104.73 239.75 156.971C201.667 187.919 163.637 218.928 125.661 250C87.0587 219.031 48.625 187.898 10 156.971C48.6433 104.75 87.1558 52.4267 125.537 0ZM57.725 150.875C74.5638 164.291 91.1963 177.936 108.077 191.291C108.119 154.989 108.243 118.666 108.015 82.3438C91.445 105.33 74.3988 127.966 57.725 150.875ZM143.039 82.9225C142.955 118.997 142.955 155.086 143.039 191.188C159.34 177.562 175.973 164.354 192.336 150.812C175.869 128.194 159.36 105.625 143.039 82.92V82.9225Z" fill="#3D82F3"/>
</svg>
